X:1
T:[ID 1-123]
T:[ID 1-123]
T:Bezeichnung standardisiert: Polonaise Polon\"aise
T:Urheber unbekannt Datum in der hier transkribierten schriftlichen Quelle: vermutlich vor 1767
C:Urheber unbekannt
C:Datum in der hier transkribierten schriftlichen Quelle: vermutlich vor 1767
L:1/8
M:none
K:F
V:1 treble 
V:1
 fF/G/ AA/B/ cd/e/ | f/a/g/f/ e/d/c/B/ AG/F/ | dF/B/ d>f b/f/d/B/ | cA/B/ c>f a/f/c/A/ | %4
 Bg/f/ e/d/c/=B/ c>b | a/g/f/e/ f4 :: a/f/c cc c/f/a | g/e/B BB B/e/g | a/f/c cc c/f/a | %9
 g/e/B BB B/e/g | fa/g/ a/g/f/e/ f/e/d/c/ | =B/c/d/B/ c4 | F/A/c/_e/ d/c/B/A/ B2 | %13
 G/=B/d/f/ e/d/c/B/ c2 | gc/d/ e/f/g/a/ b/g/a/f/ | e/f/g/e/ f4 :| %16

